site/components/footer/SVG/badger-on-black.svg

<svg width="40" height="40" viewBox="0 0 40 40" xmlns="http://www.w3.org/2000/svg"><g fill="none" fill-rule="evenodd"><path d="M20 40c5.2 0 9.9-2 13.4-5.2.2-.5.7-1.7 1.3-4.7 1-5.1 0-11.8-3.2-15.7-.2-.3-.7-.9-.6-1.8.2-1.9-1.5-3.4-3.4-3.4-.7 0-1.3.2-1.8.6-.8.4-1.2.8-2.3.7-1.2-.1-2.4 0-3.6.2-.9.2-1.8.4-2.6.7-.7.3-1.6.1-2.4-.2-.5-.2-1.1-.4-1.6-.4-2.1 0-3.9 1.7-3.9 3.9 0 .5.1 1.1.3 1.5.3.8.2 1.8 0 2.1-2.4 4.3-3.3 7.7-4.2 12.2v.3c-.2.6-.4 1.2-.6 1.9 3.4 4.5 9 7.3 15.2 7.3z" fill="#212121"/><path d="M28.6 31.4c-.9.2-1.6.7-2.1 1.2s-1 .5-1.3.3c-1.6-1-3.2-2.5-4.7-4-1.5-1.4-2.9-2.8-4.3-3.7-2-1.3-3.7-2-5.1-2.2-.6-.1-1-.4-.6-1.2l.9-1.8c.4-.7 1.2-.9 1.5-.8 5.1.8 11.5 10.4 12.6 9.9 1.1-.4-1.7-9.9-6-14.3-.5-.5-.4-1.6.6-1.7 1.4-.2 2.8-.2 4.1 0 1.1.1 2.2 1.2 2.4 1.7 2.8 5.1 3.2 13.6 4.2 13.6.5 0 .9-2.2.9-4.9 0-1.1.4-1.2.6-.1.3 2.1.2 4.3-.1 6.1-.1.5-.2.9-.3 1.3-.1.4-.5.9-1.1.7-.6-.1-1.4-.2-2.2-.1" fill="#FFF"/><path d="M20 0C9 0 0 9 0 20c0 4.8 1.7 9.3 4.6 12.7.2-.6.4-1.3.6-1.9v-.3c1-4.5 1.8-7.9 4.2-12.2.2-.4.3-1.4 0-2.1-.2-.5-.3-1-.3-1.5 0-2.1 1.7-3.9 3.9-3.9.6 0 1.1.1 1.6.4.8.4 1.7.6 2.4.2.8-.4 1.7-.6 2.6-.7 1.2-.2 2.4-.3 3.6-.2 1.1.1 1.5-.3 2.3-.7.6-.3 1.2-.6 1.8-.6 1.9 0 3.5 1.5 3.4 3.4-.1.9.4 1.5.6 1.8 3.2 3.9 4.2 10.6 3.2 15.7-.6 3-1 4.2-1.3 4.7 4-3.7 6.6-8.9 6.6-14.8C40 9 31 0 20 0z" fill="#F9F9F9"/></g></svg>

<?xml version="1.0" encoding="UTF-8" standalone="no"?>
<svg width="40px" height="40px" viewBox="0 0 40 40" version="1.1" xmlns="http://www.w3.org/2000/svg" xmlns:xlink="http://www.w3.org/1999/xlink">
    <!-- Generator: Sketch 40 (33762) - http://www.bohemiancoding.com/sketch -->
    <title>Sally the Red Badger Badger</title>
    <desc>A small badger</desc>
    <defs></defs>
    <g id="Page-1" stroke="none" stroke-width="1" fill="none" fill-rule="evenodd">
        <g id="badger-footer">
            <path d="M20,40 C25.2,40 29.9,38 33.4,34.8 C33.6,34.3 34.1,33.1 34.7,30.1 C35.7,25 34.7,18.3 31.5,14.4 C31.3,14.1 30.8,13.5 30.9,12.6 C31.1,10.7 29.4,9.2 27.5,9.2 C26.8,9.2 26.2,9.4 25.7,9.8 C24.9,10.2 24.5,10.6 23.4,10.5 C22.2,10.4 21,10.5 19.8,10.7 C18.9,10.9 18,11.1 17.2,11.4 C16.5,11.7 15.6,11.5 14.8,11.2 C14.3,11 13.7,10.8 13.2,10.8 C11.1,10.8 9.3,12.5 9.3,14.7 C9.3,15.2 9.4,15.8 9.6,16.2 C9.9,17 9.8,18 9.6,18.3 C7.2,22.6 6.3,26 5.4,30.5 L5.4,30.8 C5.2,31.4 5,32 4.8,32.7 C8.2,37.2 13.8,40 20,40 L20,40 Z" id="Shape" fill="#212121"></path>
            <path d="M28.6,31.4 C27.7,31.6 27,32.1 26.5,32.6 C26,33.1 25.5,33.1 25.2,32.9 C23.6,31.9 22,30.4 20.5,28.9 C19,27.5 17.6,26.1 16.2,25.2 C14.2,23.9 12.5,23.2 11.1,23 C10.5,22.9 10.1,22.6 10.5,21.8 C10.8,21.2 11.1,20.6 11.4,20 C11.8,19.3 12.6,19.1 12.9,19.2 C18,20 24.4,29.6 25.5,29.1 C26.6,28.7 23.8,19.2 19.5,14.8 C19,14.3 19.1,13.2 20.1,13.1 C21.5,12.9 22.9,12.9 24.2,13.1 C25.3,13.2 26.4,14.3 26.6,14.8 C29.4,19.9 29.8,28.4 30.8,28.4 C31.3,28.4 31.7,26.2 31.7,23.5 C31.7,22.4 32.1,22.3 32.3,23.4 C32.6,25.5 32.5,27.7 32.2,29.5 C32.1,30 32,30.4 31.9,30.8 C31.8,31.2 31.4,31.7 30.8,31.5 C30.2,31.4 29.4,31.3 28.6,31.4" id="Shape" fill="#FFFFFF"></path>
            <path d="M20,0 C9,0 0,9 0,20 C0,24.8 1.7,29.3 4.6,32.7 C4.8,32.1 5,31.4 5.2,30.8 L5.2,30.5 C6.2,26 7,22.6 9.4,18.3 C9.6,17.9 9.7,16.9 9.4,16.2 C9.2,15.7 9.1,15.2 9.1,14.7 C9.1,12.6 10.8,10.8 13,10.8 C13.6,10.8 14.1,10.9 14.6,11.2 C15.4,11.6 16.3,11.8 17,11.4 C17.8,11 18.7,10.8 19.6,10.7 C20.8,10.5 22,10.4 23.2,10.5 C24.3,10.6 24.7,10.2 25.5,9.8 C26.1,9.5 26.7,9.2 27.3,9.2 C29.2,9.2 30.8,10.7 30.7,12.6 C30.6,13.5 31.1,14.1 31.3,14.4 C34.5,18.3 35.5,25 34.5,30.1 C33.9,33.1 33.5,34.3 33.2,34.8 C37.2,31.1 39.8,25.9 39.8,20 C40,9 31,0 20,0 L20,0 Z" id="Shape" fill="#F9F9F9"></path>
        </g>
    </g>
</svg>
